Newaita-dark/actions/32/edit-table-insert-column-left.svg

<?xml version="1.0" encoding="UTF-8"?>
<svg xmlns="http://www.w3.org/2000/svg" xmlns:xlink="http://www.w3.org/1999/xlink" width="32pt" height="32pt" viewBox="0 0 32 32" version="1.1">
<g id="surface1">
<path style=" stroke:none;fill-rule:nonzero;fill:rgb(74.117649%,74.117649%,74.117649%);fill-opacity:1;" d="M 28.445312 1.574219 C 29.179688 1.574219 29.769531 2.164062 29.769531 2.894531 L 29.769531 28.695312 C 29.769531 29.429688 29.179688 30.019531 28.445312 30.019531 L 3.308594 30.019531 C 3.308594 30.019531 3.304688 30.019531 3.304688 30.019531 L 12.570312 30.019531 L 12.570312 28.035156 L 19.183594 28.035156 L 19.183594 21.417969 L 12.570312 21.417969 L 12.570312 19.433594 L 19.183594 19.433594 L 19.183594 12.820312 L 12.570312 12.820312 L 12.570312 10.835938 L 19.183594 10.835938 L 19.183594 3.558594 L 1.984375 3.558594 L 1.984375 2.894531 C 1.984375 2.164062 2.574219 1.574219 3.308594 1.574219 Z M 27.121094 3.558594 L 21.167969 3.558594 L 21.167969 10.835938 L 27.785156 10.835938 L 27.785156 4.21875 C 27.785156 3.851562 27.488281 3.558594 27.121094 3.558594 Z M 27.785156 12.820312 L 21.167969 12.820312 L 21.167969 19.433594 L 27.785156 19.433594 Z M 27.785156 21.417969 L 21.167969 21.417969 L 21.167969 28.035156 L 27.121094 28.035156 C 27.488281 28.035156 27.785156 27.738281 27.785156 27.371094 Z M 27.785156 21.417969 "/>
<path style=" stroke:none;fill-rule:nonzero;fill:rgb(100%,43.921569%,26.274511%);fill-opacity:1;" d="M 12.570312 3.558594 L 12.570312 16.125 L 10.585938 16.125 L 10.585938 12.980469 L 3.96875 6.363281 L 3.96875 10.753906 L 9.339844 16.125 L 6.535156 16.125 L 3.96875 13.5625 L 3.96875 16.125 L 1.984375 16.125 L 1.984375 3.558594 L 3.96875 3.558594 L 10.585938 10.171875 L 10.585938 3.558594 Z M 12.570312 3.558594 "/>
<path style=" stroke:none;fill-rule:nonzero;fill:rgb(40.000001%,73.333335%,41.568628%);fill-opacity:1;" d="M 7.277344 19.433594 C 7.828125 19.433594 8.269531 19.875 8.269531 20.425781 L 8.269531 23.734375 L 11.578125 23.734375 C 12.125 23.734375 12.570312 24.175781 12.570312 24.726562 C 12.570312 25.277344 12.125 25.71875 11.578125 25.71875 L 8.269531 25.71875 L 8.269531 29.027344 C 8.269531 29.574219 7.828125 30.019531 7.277344 30.019531 C 6.726562 30.019531 6.285156 29.574219 6.285156 29.027344 L 6.285156 25.71875 L 2.976562 25.71875 C 2.425781 25.71875 1.984375 25.277344 1.984375 24.726562 C 1.984375 24.175781 2.425781 23.734375 2.976562 23.734375 L 6.285156 23.734375 L 6.285156 20.425781 C 6.285156 19.875 6.726562 19.433594 7.277344 19.433594 Z M 7.277344 19.433594 "/>
</g>
</svg>

<svg xmlns="http://www.w3.org/2000/svg" width="32pt" height="32pt" viewBox="0 0 32 32"><path d="M28.445 1.574c.735 0 1.325.59 1.325 1.32v25.801a1.32 1.32 0 0 1-1.325 1.325H3.31h-.004 9.265v-1.985h6.614v-6.617H12.57v-1.984h6.614V12.82H12.57v-1.984h6.614V3.559h-17.2v-.664c0-.73.59-1.32 1.325-1.32zM27.121 3.56h-5.953v7.277h6.617V4.219a.66.66 0 0 0-.664-.66zm.664 9.261h-6.617v6.614h6.617zm0 8.598h-6.617v6.617h5.953a.664.664 0 0 0 .664-.664zm0 0" fill="#bdbdbd"/><path d="M12.57 3.559v12.566h-1.984V12.98L3.969 6.363v4.39l5.37 5.372H6.536L3.97 13.562v2.563H1.984V3.559H3.97l6.617 6.613V3.559zm0 0" fill="#ff7043"/><path d="M7.277 19.434c.551 0 .993.441.993.992v3.308h3.308a.991.991 0 1 1 0 1.985H8.27v3.308a.991.991 0 1 1-1.985 0V25.72H2.977a.989.989 0 0 1-.993-.992c0-.551.442-.993.993-.993h3.308v-3.308c0-.551.442-.992.992-.992zm0 0" fill="#66bb6a"/></svg>
